assets/img/braze_icons/globe-04.svg

<svg fill="none" height="24" viewBox="0 0 24 24" width="24" xmlns="http://www.w3.org/2000/svg"><g fill="#801ed7"><path d="m13.8939 12.5808 2.6403 1.1316c.13.0556.2801.1199.4055.1871.1411.0756.3469.203.5142.4278.2116.2843.3157.6344.2938.9882-.0173.2796-.1201.4988-.1971.6392-.0683.1248-.1589.2606-.2374.3782-.4907.7363-.9322 1.7537-1.6284 2.3259-.1523.1252-.3278.2192-.5165.2765-.8722.2649-2.4607.3131-3.3569-.0394-.2337-.0919-.4406-.241-.6017-.4336-.6045-.723-.765-1.9654-1.0536-2.8317l-.0077-.0227c-.0284-.0833-.087-.2552-.103-.4405-.0136-.1568-.0023-.3148.0333-.4681.1475-.6356.5581-1.2992.8877-1.849.0687-.1147.1751-.2693.3455-.4066.224-.1806.4952-.293.7813-.3237.2176-.0233.4021.0108.5318.0433.426.1066.8666.2451 1.2689.4175z"/><path clip-rule="evenodd" d="m12 1c-6.07513 0-11 4.92487-11 11 0 6.0751 4.92487 11 11 11 6.0751 0 11-4.9249 11-11 0-6.07513-4.9249-11-11-11zm-8.49447 8.01869c-.32745.93305-.50553 1.93641-.50553 2.98131 0 4.9706 4.02944 9 9 9 4.9706 0 9-4.0294 9-9 0-3.8325-2.3955-7.10549-5.7709-8.40336-.0829 1.24553.3521 3.21167-.692 4.17279-1.095 1.00793-3.0549 1.44417-4.3932 2.03887l-.88852 1.1847c-.06989.0933-.15371.2051-.23566.2978-.09527.1076-.24159.2532-.45657.3606-.27915.1393-.59481.1882-.90302.1397-.23737-.0373-.42085-.1319-.5442-.2057-.10614-.0636-.21982-.1448-.31464-.2126z" fill-rule="evenodd"/></g></svg>

<svg width="24" height="24" viewBox="0 0 24 24" fill="none" xmlns="http://www.w3.org/2000/svg">
<path d="M13.8939 12.5808L16.5342 13.7124C16.6642 13.768 16.8143 13.8323 16.9397 13.8995C17.0808 13.9751 17.2866 14.1025 17.4539 14.3273C17.6655 14.6116 17.7696 14.9617 17.7477 15.3155C17.7304 15.5951 17.6276 15.8143 17.5506 15.9547C17.4823 16.0795 17.3917 16.2153 17.3132 16.3329C16.8225 17.0692 16.381 18.0866 15.6848 18.6588C15.5325 18.784 15.357 18.878 15.1683 18.9353C14.2961 19.2002 12.7076 19.2484 11.8114 18.8959C11.5777 18.804 11.3708 18.6549 11.2097 18.4623C10.6052 17.7393 10.4447 16.4969 10.1561 15.6306L10.1484 15.6079C10.12 15.5246 10.0614 15.3527 10.0454 15.1674C10.0318 15.0106 10.0431 14.8526 10.0787 14.6993C10.2262 14.0637 10.6368 13.4001 10.9664 12.8503C11.0351 12.7356 11.1415 12.581 11.3119 12.4437C11.5359 12.2631 11.8071 12.1507 12.0932 12.12C12.3108 12.0967 12.4953 12.1308 12.625 12.1633C13.051 12.2699 13.4916 12.4084 13.8939 12.5808Z" fill="#801ED7"/>
<path fill-rule="evenodd" clip-rule="evenodd" d="M12 1C5.92487 1 1 5.92487 1 12C1 18.0751 5.92487 23 12 23C18.0751 23 23 18.0751 23 12C23 5.92487 18.0751 1 12 1ZM3.50553 9.01869C3.17808 9.95174 3 10.9551 3 12C3 16.9706 7.02944 21 12 21C16.9706 21 21 16.9706 21 12C21 8.1675 18.6045 4.89451 15.2291 3.59664C15.1462 4.84217 15.5812 6.80831 14.5371 7.76943C13.4421 8.77736 11.4822 9.2136 10.1439 9.8083L9.25538 10.993C9.18549 11.0863 9.10167 11.1981 9.01972 11.2908C8.92445 11.3984 8.77813 11.544 8.56315 11.6514C8.284 11.7907 7.96834 11.8396 7.66013 11.7911C7.42276 11.7538 7.23928 11.6592 7.11593 11.5854C7.00979 11.5218 6.89611 11.4406 6.80129 11.3728L3.50553 9.01869Z" fill="#801ED7"/>
</svg>
